Newaita-dark/apps/22/wps-office-wpsmain.svg

<svg height="22" viewBox="0 0 22 22" width="22" xmlns="http://www.w3.org/2000/svg" xmlns:xlink="http://www.w3.org/1999/xlink"><linearGradient id="a" gradientUnits="userSpaceOnUse" x1="10.9151146" x2="10.9151146" y1="19.27333615" y2="20.18292942919"><stop offset="0" stop-opacity=".27451"/><stop offset="1" stop-opacity="0"/></linearGradient><linearGradient id="b"><stop offset="0" stop-opacity=".313726"/><stop offset=".222222" stop-opacity=".27451"/><stop offset="1" stop-opacity="0"/></linearGradient><radialGradient id="c" cx="450.908936" cy="189.579361" gradientTransform="matrix(.00000012 -.0537161 -.0966889 -.00000007 33.565843 43.721791)" gradientUnits="userSpaceOnUse" r="21.166656" xlink:href="#b"/><radialGradient id="d" cx="450.908936" cy="189.579361" gradientTransform="matrix(-.00000012 .0537161 .0966889 .00000007 -12.190427 -5.175142)" gradientUnits="userSpaceOnUse" r="21.166656" xlink:href="#b"/><radialGradient id="e" cx="450.908936" cy="189.579361" gradientTransform="matrix(-.00000012 -.0537161 .0966889 -.00000007 -12.190427 43.721794)" gradientUnits="userSpaceOnUse" r="21.166656" xlink:href="#b"/><radialGradient id="f" cx="450.908936" cy="189.579361" gradientTransform="matrix(.00000012 .0537161 -.0966889 .00000007 33.565843 -5.175142)" gradientUnits="userSpaceOnUse" r="21.166656" xlink:href="#b"/><linearGradient id="g" gradientUnits="userSpaceOnUse" x1="10.687706" x2="10.687706" y1="19.27332401286" y2="1.99107548985"><stop offset="0" stop-color="#eee"/><stop offset="1" stop-color="#f5f5f5"/></linearGradient><linearGradient id="h" gradientUnits="userSpaceOnUse" x1="142.907951" x2="251.387123" y1="260.476174" y2="72.584744"><stop offset="0" stop-color="#9e9e9e"/><stop offset="1" stop-color="#bdbdbd"/></linearGradient><linearGradient id="i"><stop offset="0" stop-color="#42a5f5"/><stop offset="1" stop-color="#64b5f6"/></linearGradient><linearGradient id="j" gradientTransform="matrix(.0429729 0 0 .0542815 0 5.198301)" gradientUnits="userSpaceOnUse" x1="243.416656" x2="243.416656" xlink:href="#i" y1="259.296906" y2="-59.085064"/><linearGradient id="k" gradientUnits="userSpaceOnUse" x1="10.687706" x2="10.687706" xlink:href="#i" y1="19.27332401286" y2="1.99107548985"/><path d="m5.914062 19.273438h9.550782v.910156h-9.550782zm0 0" fill="url(#a)"/><path d="m15.464844 19.273438h1.816406v-.910157h-1.816406zm0 0" fill="url(#c)"/><path d="m5.914062 19.273438h-1.820312v.910156h1.820312zm0 0" fill="url(#d)"/><path d="m5.914062 19.273438h-1.820312v-.910157h1.820312zm0 0" fill="url(#e)"/><path d="m15.464844 19.273438h1.816406v.910156h-1.816406zm0 0" fill="url(#f)"/><path d="m5.003906 1.992188c-.503906 0-.910156.40625-.910156.910156v15.460937c0 .503907.40625.910157.910156.910157h11.367188c.503906 0 .910156-.40625.910156-.910157v-12.277343l-4.09375-4.09375zm9.09375 0 3.183594 3.183593v-2.273437c0-.503906-.40625-.910156-.910156-.910156zm0 0" fill="url(#g)"/><g fill="url(#h)" stroke="#212121" stroke-linecap="round" stroke-linejoin="round" stroke-width="3"><path d="m122.646594 91.359038 137.610432-.007383c5.784121-.019345 10.588555 4.748789 10.56245 10.611631.019345 5.78412-4.748789 10.588555-10.611632 10.562449l-137.610431.007384c-5.784121.019345-10.509833-4.703339-10.56245-10.611631.026105-5.862842 4.748789-10.588555 10.611631-10.56245zm0 0" transform="matrix(.0372156 -.0214864 .0214864 .0372156 0 9.239163)"/><path d="m122.672403 133.673928 137.610432-.007384c5.78412-.019344 10.588555 4.74879 10.562449 10.611632-.026105 5.862842-4.748789 10.588555-10.611631 10.562449l-137.610432.007384c-5.78412.019345-10.588555-4.748789-10.56245-10.611631-.019344-5.78412 4.74879-10.588555 10.611632-10.56245zm0 0" transform="matrix(.0372156 -.0214864 .0214864 .0372156 0 9.239163)"/><path d="m122.652761 176.06754 137.53171-.052834c5.862842.026105 10.588555 4.748789 10.686622 10.57836-.026106 5.862842-4.74879 10.588554-10.611632 10.562449l-137.610432.007384c-5.862842-.026105-10.588555-4.748789-10.607899-10.532909.026105-5.862843 4.748789-10.588555 10.611631-10.56245zm0 0" transform="matrix(.0372156 -.0214864 .0214864 .0372156 0 9.239163)"/><path d="m122.675306 219.115285 137.564982.071338c5.78412-.019344 10.588555 4.74879 10.6079 10.53291-.026106 5.862842-4.74879 10.588555-10.611632 10.562449l-137.610432.007384c-5.78412.019345-10.588555-4.748789-10.562449-10.611631-.019345-5.78412 4.703339-10.509833 10.611631-10.56245zm0 0" transform="matrix(.0372156 -.0214864 .0214864 .0372156 0 9.239163)"/></g><path d="m4.09375 11.542969h13.1875v4.320312h-13.1875zm0 0" fill="url(#j)"/><path d="m14.097656 1.992188 3.183594 3.183593v-2.273437c0-.503906-.40625-.910156-.910156-.910156zm0 0" fill="url(#k)"/><path d="m5.003906 1.992188c-.503906 0-.910156.40625-.910156.910156v.226562c0-.503906.40625-.910156.910156-.910156h8.183594l4.09375 4.09375v-.226562l-4.09375-4.09375zm9.09375 0 .226563.226562h2.046875c.503906 0 .910156.40625.910156.910156v-.226562c0-.503906-.40625-.910156-.910156-.910156zm0 0" fill="#fff" fill-opacity=".392157"/><path d="m14.097656 1.992188 3.183594 3.183593v-.339843l-2.84375-2.84375zm-10.003906 16.035156v.335937c0 .503907.40625.910157.910156.910157h11.367188c.503906 0 .910156-.40625.910156-.910157v-.335937c0 .503906-.40625.910156-.910156.910156h-11.367188c-.503906 0-.910156-.40625-.910156-.910156zm0 0" fill-opacity=".235294"/><path d="m4.09375 15.863281v.339844h13.1875v-.339844zm0 0" fill-opacity=".235294"/><path d="m4.09375 11.542969v.339843h13.1875v-.339843zm0 0" fill="#fff" fill-opacity=".392157"/><path d="m4.09375 11.476562c-.035156 0-.066406.03125-.066406.066407v4.320312c0 .035157.03125.0625.066406.0625h13.1875c.035156 0 .066406-.027343.066406-.0625v-4.320312c0-.035157-.03125-.066407-.066406-.066407zm.0625.128907h13.0625v4.191406h-13.0625zm0 0" fill="#212121"/><path d="m5.003906 1.925781c-.539062 0-.976562.4375-.976562.976563v15.460937c0 .539063.4375.972657.976562.972657h11.367188c.539062 0 .976562-.433594.976562-.972657v-12.277343c0-.019532-.007812-.035157-.019531-.046876l-4.09375-4.09375c-.011719-.011718-.027344-.019531-.046875-.019531zm9.09375 0c-.023437 0-.046875.015625-.058594.039063-.011718.027344-.003906.054687.015626.070312l3.183593 3.183594c.015625.019531.042969.027344.070313.015625.023437-.011719.039062-.035156.039062-.058594v-2.273437c0-.539063-.4375-.976563-.976562-.976563zm-9.09375.128907h8.160156l4.054688 4.054687v12.253906c0 .46875-.375.84375-.847656.84375h-11.367188c-.46875 0-.847656-.375-.847656-.84375v-15.460937c0-.472656.378906-.847656.847656-.847656zm9.25 0h2.117188c.472656 0 .847656.375.847656.847656v2.117187zm0 0" fill="#212121"/></svg>

<?xml version="1.0" encoding="UTF-8"?>
<svg xmlns="http://www.w3.org/2000/svg" xmlns:xlink="http://www.w3.org/1999/xlink" width="22px" height="22px" viewBox="0 0 22 22" version="1.1">
<defs>
<linearGradient id="linear0" gradientUnits="userSpaceOnUse" x1="254" y1="233.5" x2="254" y2="254.666672" gradientTransform="matrix(0.0429729,0,0,0.0429729,-0.00000171891,9.239164)">
<stop offset="0" style="stop-color:rgb(0%,0%,0%);stop-opacity:0.27451;"/>
<stop offset="1" style="stop-color:rgb(0%,0%,0%);stop-opacity:0;"/>
</linearGradient>
<radialGradient id="radial0" gradientUnits="userSpaceOnUse" cx="450.908936" cy="189.579361" fx="450.908936" fy="189.579361" r="21.166656" gradientTransform="matrix(0.000000119742,-0.0537161,-0.0966889,-0.0000000698078,33.565843,43.721791)">
<stop offset="0" style="stop-color:rgb(0%,0%,0%);stop-opacity:0.313726;"/>
<stop offset="0.222222" style="stop-color:rgb(0%,0%,0%);stop-opacity:0.27451;"/>
<stop offset="1" style="stop-color:rgb(0%,0%,0%);stop-opacity:0;"/>
</radialGradient>
<radialGradient id="radial1" gradientUnits="userSpaceOnUse" cx="450.908936" cy="189.579361" fx="450.908936" fy="189.579361" r="21.166656" gradientTransform="matrix(-0.000000119742,0.0537161,0.0966889,0.0000000698078,-12.190427,-5.175142)">
<stop offset="0" style="stop-color:rgb(0%,0%,0%);stop-opacity:0.313726;"/>
<stop offset="0.222222" style="stop-color:rgb(0%,0%,0%);stop-opacity:0.27451;"/>
<stop offset="1" style="stop-color:rgb(0%,0%,0%);stop-opacity:0;"/>
</radialGradient>
<radialGradient id="radial2" gradientUnits="userSpaceOnUse" cx="450.908936" cy="189.579361" fx="450.908936" fy="189.579361" r="21.166656" gradientTransform="matrix(-0.000000119742,-0.0537161,0.0966889,-0.0000000698078,-12.190427,43.721794)">
<stop offset="0" style="stop-color:rgb(0%,0%,0%);stop-opacity:0.313726;"/>
<stop offset="0.222222" style="stop-color:rgb(0%,0%,0%);stop-opacity:0.27451;"/>
<stop offset="1" style="stop-color:rgb(0%,0%,0%);stop-opacity:0;"/>
</radialGradient>
<radialGradient id="radial3" gradientUnits="userSpaceOnUse" cx="450.908936" cy="189.579361" fx="450.908936" fy="189.579361" r="21.166656" gradientTransform="matrix(0.000000119742,0.0537161,-0.0966889,0.0000000698078,33.565843,-5.175142)">
<stop offset="0" style="stop-color:rgb(0%,0%,0%);stop-opacity:0.313726;"/>
<stop offset="0.222222" style="stop-color:rgb(0%,0%,0%);stop-opacity:0.27451;"/>
<stop offset="1" style="stop-color:rgb(0%,0%,0%);stop-opacity:0;"/>
</radialGradient>
<linearGradient id="linear1" gradientUnits="userSpaceOnUse" x1="940" y1="1695.118164" x2="940" y2="175.118118" gradientTransform="matrix(0.0113699,0,0,0.0113699,0,0)">
<stop offset="0" style="stop-color:rgb(93.333334%,93.333334%,93.333334%);stop-opacity:1;"/>
<stop offset="1" style="stop-color:rgb(96.078432%,96.078432%,96.078432%);stop-opacity:1;"/>
</linearGradient>
<linearGradient id="linear2" gradientUnits="userSpaceOnUse" x1="200.174942" y1="142.538422" x2="308.654114" y2="-45.353008" gradientTransform="matrix(1,-0.000000000000000056,0.000000000000000056,1,-57.266991,117.937752)">
<stop offset="0" style="stop-color:rgb(61.960787%,61.960787%,61.960787%);stop-opacity:1;"/>
<stop offset="1" style="stop-color:rgb(74.117649%,74.117649%,74.117649%);stop-opacity:1;"/>
</linearGradient>
<linearGradient id="linear3" gradientUnits="userSpaceOnUse" x1="200.174942" y1="142.538422" x2="308.654114" y2="-45.353008" gradientTransform="matrix(1,-0.000000000000000056,0.000000000000000056,1,-57.266991,117.937752)">
<stop offset="0" style="stop-color:rgb(61.960787%,61.960787%,61.960787%);stop-opacity:1;"/>
<stop offset="1" style="stop-color:rgb(74.117649%,74.117649%,74.117649%);stop-opacity:1;"/>
</linearGradient>
<linearGradient id="linear4" gradientUnits="userSpaceOnUse" x1="200.174942" y1="142.538422" x2="308.654114" y2="-45.353008" gradientTransform="matrix(1,-0.000000000000000056,0.000000000000000056,1,-57.266991,117.937752)">
<stop offset="0" style="stop-color:rgb(61.960787%,61.960787%,61.960787%);stop-opacity:1;"/>
<stop offset="1" style="stop-color:rgb(74.117649%,74.117649%,74.117649%);stop-opacity:1;"/>
</linearGradient>
<linearGradient id="linear5" gradientUnits="userSpaceOnUse" x1="200.174942" y1="142.538422" x2="308.654114" y2="-45.353008" gradientTransform="matrix(1,-0.000000000000000056,0.000000000000000056,1,-57.266991,117.937752)">
<stop offset="0" style="stop-color:rgb(61.960787%,61.960787%,61.960787%);stop-opacity:1;"/>
<stop offset="1" style="stop-color:rgb(74.117649%,74.117649%,74.117649%);stop-opacity:1;"/>
</linearGradient>
<linearGradient id="linear6" gradientUnits="userSpaceOnUse" x1="243.416656" y1="259.296906" x2="243.416656" y2="-59.085064" gradientTransform="matrix(0.0429729,0,0,0.0542815,0.000000437142,5.198301)">
<stop offset="0" style="stop-color:rgb(25.882354%,64.705884%,96.078432%);stop-opacity:1;"/>
<stop offset="1" style="stop-color:rgb(39.215687%,70.980394%,96.470588%);stop-opacity:1;"/>
</linearGradient>
<linearGradient id="linear7" gradientUnits="userSpaceOnUse" x1="940" y1="1695.118164" x2="940" y2="175.118118" gradientTransform="matrix(0.0113699,0,0,0.0113699,0,0)">
<stop offset="0" style="stop-color:rgb(25.882354%,64.705884%,96.078432%);stop-opacity:1;"/>
<stop offset="1" style="stop-color:rgb(39.215687%,70.980394%,96.470588%);stop-opacity:1;"/>
</linearGradient>
</defs>
<g id="surface1">
<path style=" stroke:none;fill-rule:nonzero;fill:url(#linear0);" d="M 5.914062 19.273438 L 15.464844 19.273438 L 15.464844 20.183594 L 5.914062 20.183594 Z M 5.914062 19.273438 "/>
<path style=" stroke:none;fill-rule:nonzero;fill:url(#radial0);" d="M 15.464844 19.273438 L 17.28125 19.273438 L 17.28125 18.363281 L 15.464844 18.363281 Z M 15.464844 19.273438 "/>
<path style=" stroke:none;fill-rule:nonzero;fill:url(#radial1);" d="M 5.914062 19.273438 L 4.09375 19.273438 L 4.09375 20.183594 L 5.914062 20.183594 Z M 5.914062 19.273438 "/>
<path style=" stroke:none;fill-rule:nonzero;fill:url(#radial2);" d="M 5.914062 19.273438 L 4.09375 19.273438 L 4.09375 18.363281 L 5.914062 18.363281 Z M 5.914062 19.273438 "/>
<path style=" stroke:none;fill-rule:nonzero;fill:url(#radial3);" d="M 15.464844 19.273438 L 17.28125 19.273438 L 17.28125 20.183594 L 15.464844 20.183594 Z M 15.464844 19.273438 "/>
<path style=" stroke:none;fill-rule:nonzero;fill:url(#linear1);" d="M 5.003906 1.992188 C 4.5 1.992188 4.09375 2.398438 4.09375 2.902344 L 4.09375 18.363281 C 4.09375 18.867188 4.5 19.273438 5.003906 19.273438 L 16.371094 19.273438 C 16.875 19.273438 17.28125 18.867188 17.28125 18.363281 L 17.28125 6.085938 L 13.1875 1.992188 Z M 14.097656 1.992188 L 17.28125 5.175781 L 17.28125 2.902344 C 17.28125 2.398438 16.875 1.992188 16.371094 1.992188 Z M 14.097656 1.992188 "/>
<path style="fill-rule:nonzero;fill:url(#linear2);stroke-width:3;stroke-linecap:round;stroke-linejoin:round;stroke:rgb(12.941177%,12.941177%,12.941177%);stroke-opacity:1;stroke-miterlimit:4;" d="M 122.646594 91.359038 L 260.257026 91.351655 C 266.041147 91.33231 270.845581 96.100444 270.819476 101.963286 C 270.838821 107.747406 266.070687 112.551841 260.207844 112.525735 L 122.597413 112.533119 C 116.813292 112.552464 112.08758 107.82978 112.034963 101.921488 C 112.061068 96.058646 116.783752 91.332933 122.646594 91.359038 Z M 122.646594 91.359038 " transform="matrix(0.0372156,-0.0214864,0.0214864,0.0372156,0,9.239163)"/>
<path style="fill-rule:nonzero;fill:url(#linear3);stroke-width:3;stroke-linecap:round;stroke-linejoin:round;stroke:rgb(12.941177%,12.941177%,12.941177%);stroke-opacity:1;stroke-miterlimit:4;" d="M 122.672403 133.673928 L 260.282835 133.666544 C 266.066955 133.6472 270.87139 138.415334 270.845284 144.278176 C 270.819179 150.141018 266.096495 154.866731 260.233653 154.840625 L 122.623221 154.848009 C 116.839101 154.867354 112.034666 150.09922 112.060771 144.236378 C 112.041427 138.452258 116.809561 133.647823 122.672403 133.673928 Z M 122.672403 133.673928 " transform="matrix(0.0372156,-0.0214864,0.0214864,0.0372156,0,9.239163)"/>
<path style="fill-rule:nonzero;fill:url(#linear4);stroke-width:3;stroke-linecap:round;stroke-linejoin:round;stroke:rgb(12.941177%,12.941177%,12.941177%);stroke-opacity:1;stroke-miterlimit:4;" d="M 122.652761 176.06754 L 260.184471 176.014706 C 266.047313 176.040811 270.773026 180.763495 270.871093 186.593066 C 270.844987 192.455908 266.122303 197.18162 260.259461 197.155515 L 122.649029 197.162899 C 116.786187 197.136794 112.060474 192.41411 112.04113 186.62999 C 112.067235 180.767147 116.789919 176.041435 122.652761 176.06754 Z M 122.652761 176.06754 " transform="matrix(0.0372156,-0.0214864,0.0214864,0.0372156,0,9.239163)"/>
<path style="fill-rule:nonzero;fill:url(#linear5);stroke-width:3;stroke-linecap:round;stroke-linejoin:round;stroke:rgb(12.941177%,12.941177%,12.941177%);stroke-opacity:1;stroke-miterlimit:4;" d="M 122.675306 219.115285 L 260.240288 219.186623 C 266.024408 219.167279 270.828843 223.935413 270.848188 229.719533 C 270.822082 235.582375 266.099398 240.308088 260.236556 240.281982 L 122.626124 240.289366 C 116.842004 240.308711 112.037569 235.540577 112.063675 229.677735 C 112.04433 223.893615 116.767014 219.167902 122.675306 219.115285 Z M 122.675306 219.115285 " transform="matrix(0.0372156,-0.0214864,0.0214864,0.0372156,0,9.239163)"/>
<path style=" stroke:none;fill-rule:nonzero;fill:url(#linear6);" d="M 4.09375 11.542969 L 17.28125 11.542969 L 17.28125 15.863281 L 4.09375 15.863281 Z M 4.09375 11.542969 "/>
<path style=" stroke:none;fill-rule:nonzero;fill:url(#linear7);" d="M 14.097656 1.992188 L 17.28125 5.175781 L 17.28125 2.902344 C 17.28125 2.398438 16.875 1.992188 16.371094 1.992188 Z M 14.097656 1.992188 "/>
<path style=" stroke:none;fill-rule:nonzero;fill:rgb(100%,100%,100%);fill-opacity:0.392157;" d="M 5.003906 1.992188 C 4.5 1.992188 4.09375 2.398438 4.09375 2.902344 L 4.09375 3.128906 C 4.09375 2.625 4.5 2.21875 5.003906 2.21875 L 13.1875 2.21875 L 17.28125 6.3125 L 17.28125 6.085938 L 13.1875 1.992188 Z M 14.097656 1.992188 L 14.324219 2.21875 L 16.371094 2.21875 C 16.875 2.21875 17.28125 2.625 17.28125 3.128906 L 17.28125 2.902344 C 17.28125 2.398438 16.875 1.992188 16.371094 1.992188 Z M 14.097656 1.992188 "/>
<path style=" stroke:none;fill-rule:nonzero;fill:rgb(0%,0%,0%);fill-opacity:0.235294;" d="M 14.097656 1.992188 L 17.28125 5.175781 L 17.28125 4.835938 L 14.4375 1.992188 Z M 4.09375 18.027344 L 4.09375 18.363281 C 4.09375 18.867188 4.5 19.273438 5.003906 19.273438 L 16.371094 19.273438 C 16.875 19.273438 17.28125 18.867188 17.28125 18.363281 L 17.28125 18.027344 C 17.28125 18.53125 16.875 18.9375 16.371094 18.9375 L 5.003906 18.9375 C 4.5 18.9375 4.09375 18.53125 4.09375 18.027344 Z M 4.09375 18.027344 "/>
<path style=" stroke:none;fill-rule:nonzero;fill:rgb(0%,0%,0%);fill-opacity:0.235294;" d="M 4.09375 15.863281 L 4.09375 16.203125 L 17.28125 16.203125 L 17.28125 15.863281 Z M 4.09375 15.863281 "/>
<path style=" stroke:none;fill-rule:nonzero;fill:rgb(100%,100%,100%);fill-opacity:0.392157;" d="M 4.09375 11.542969 L 4.09375 11.882812 L 17.28125 11.882812 L 17.28125 11.542969 Z M 4.09375 11.542969 "/>
<path style=" stroke:none;fill-rule:nonzero;fill:rgb(12.941177%,12.941177%,12.941177%);fill-opacity:1;" d="M 4.09375 11.476562 C 4.058594 11.476562 4.027344 11.507812 4.027344 11.542969 L 4.027344 15.863281 C 4.027344 15.898438 4.058594 15.925781 4.09375 15.925781 L 17.28125 15.925781 C 17.316406 15.925781 17.347656 15.898438 17.347656 15.863281 L 17.347656 11.542969 C 17.347656 11.507812 17.316406 11.476562 17.28125 11.476562 Z M 4.15625 11.605469 L 17.21875 11.605469 L 17.21875 15.796875 L 4.15625 15.796875 Z M 4.15625 11.605469 "/>
<path style=" stroke:none;fill-rule:nonzero;fill:rgb(12.941177%,12.941177%,12.941177%);fill-opacity:1;" d="M 5.003906 1.925781 C 4.464844 1.925781 4.027344 2.363281 4.027344 2.902344 L 4.027344 18.363281 C 4.027344 18.902344 4.464844 19.335938 5.003906 19.335938 L 16.371094 19.335938 C 16.910156 19.335938 17.347656 18.902344 17.347656 18.363281 L 17.347656 6.085938 C 17.347656 6.066406 17.339844 6.050781 17.328125 6.039062 L 13.234375 1.945312 C 13.222656 1.933594 13.207031 1.925781 13.1875 1.925781 Z M 14.097656 1.925781 C 14.074219 1.925781 14.050781 1.941406 14.039062 1.964844 C 14.027344 1.992188 14.035156 2.019531 14.054688 2.035156 L 17.238281 5.21875 C 17.253906 5.238281 17.28125 5.246094 17.308594 5.234375 C 17.332031 5.222656 17.347656 5.199219 17.347656 5.175781 L 17.347656 2.902344 C 17.347656 2.363281 16.910156 1.925781 16.371094 1.925781 Z M 5.003906 2.054688 L 13.164062 2.054688 L 17.21875 6.109375 L 17.21875 18.363281 C 17.21875 18.832031 16.84375 19.207031 16.371094 19.207031 L 5.003906 19.207031 C 4.535156 19.207031 4.15625 18.832031 4.15625 18.363281 L 4.15625 2.902344 C 4.15625 2.429688 4.535156 2.054688 5.003906 2.054688 Z M 14.253906 2.054688 L 16.371094 2.054688 C 16.84375 2.054688 17.21875 2.429688 17.21875 2.902344 L 17.21875 5.019531 Z M 14.253906 2.054688 "/>
</g>
</svg>
